X: 17
M:6/8
L:1/8
K:G
E/2F/2|GEE BEE|GEE BAG|FDD ADD|dcB AGF|
|:A|Bef gfe|fed BAG|FDD ADD|"tr"A2 G FED|
1Bef gfe|fed BAG|GEE BAF|GEE E2:|
2EDE G2 A|BAB def|edB BAF|GEE E2:||

